X: 31074
T: Paddy Cronin's
R: reel
M: 4/4
K: Dmajor
B|:ADDD DAAB|AAFA EFGB|AA^GB A^GAB|1 =cdcG EFGB:|2 =cdcG EFGE||
|:FDDD BDAF|DD=cG EFGE|FDDD BDAB|1 =cdcG EFGE:|2 =cdcG EFGB||
|:dfff dffe|dcdB AFDA|Beed efed|1 ceBc ABcA:|2 ceBc AAdB||

